X:1
T:Welcome Home My Deary [1]
T:You've been long away, welcome home my dearie
M:3/2 time
L:1/8
B:Stewart (1761)
Z:AK/Fiddler's Companion
K:D
DEFG A2D2 A4|=c2 G4 =C2 EFGE|DEFG A2 D2 A4|
d2A4 G2F2D2||f2d2g2e2f2d2|g2e2e2=c2 efge|
f2d2 efge agfe|d2 A4 G2F2D2||

